packages/react/src/components/base/Icon/assets/icon-wrench.svg

<svg width="24" height="24" viewBox="0 0 24 24" xmlns="http://www.w3.org/2000/svg" fill="currentColor"> <path d="M21.5974 6.33634C21.5291 6.16767 21.421 6.01807 21.2823 5.90037C21.1435 5.78267 20.9783 5.70038 20.8007 5.66055C20.6232 5.62073 20.4386 5.62457 20.2629 5.67173C20.0872 5.71889 19.9255 5.80797 19.7918 5.93134L16.1561 9.28946L14.9674 9.03446L14.7096 7.8429L18.0649 4.20727C18.1882 4.07353 18.2773 3.91186 18.3245 3.73612C18.3717 3.56039 18.3755 3.37584 18.3357 3.1983C18.2958 3.02076 18.2136 2.85553 18.0959 2.71678C17.9782 2.57803 17.8286 2.46989 17.6599 2.40165C16.3854 1.88859 14.9898 1.75461 13.6409 2.01582C12.2921 2.27702 11.0474 2.92229 10.0565 3.87403C9.06566 4.82578 8.37081 6.04348 8.05552 7.38073C7.74023 8.71797 7.81792 10.1178 8.27926 11.412L2.88957 16.3376C2.8767 16.3487 2.86449 16.3606 2.85301 16.3732C2.22859 17.0079 1.88025 17.8636 1.88388 18.7539C1.8875 19.6443 2.2428 20.4971 2.87236 21.1267C3.50193 21.7562 4.35477 22.1115 5.24511 22.1152C6.13544 22.1188 6.99115 21.7704 7.62582 21.146L7.66145 21.1095L12.5871 15.7198C13.8816 16.1824 15.2822 16.2609 16.6203 15.9458C17.9584 15.6308 19.1769 14.9356 20.129 13.9441C21.0811 12.9525 21.7263 11.7068 21.9868 10.3571C22.2474 9.00731 22.1121 7.61101 21.5974 6.33634ZM14.9908 13.8832C14.2306 13.8855 13.4805 13.7082 12.8018 13.3657C12.5826 13.2552 12.3334 13.2195 12.092 13.2638C11.8507 13.3081 11.6304 13.4302 11.4649 13.6113L6.01988 19.5701C5.80854 19.7814 5.5219 19.9002 5.22301 19.9002C4.92412 19.9002 4.63748 19.7814 4.42613 19.5701C4.21479 19.3587 4.09606 19.0721 4.09606 18.7732C4.09606 18.4743 4.21479 18.1877 4.42613 17.9763L10.3839 12.5323C10.5651 12.3667 10.6871 12.1465 10.7315 11.9051C10.7758 11.6638 10.74 11.4145 10.6296 11.1954C10.2887 10.5169 10.1127 9.76753 10.1158 9.00821C10.1173 7.71574 10.6314 6.47663 11.5453 5.56271C12.4592 4.64879 13.6983 4.1347 14.9908 4.13321H15.0743L12.663 6.74602C12.5409 6.87845 12.4524 7.03826 12.405 7.212C12.3575 7.38575 12.3524 7.56835 12.3902 7.74446L12.9208 10.2148C12.9663 10.4265 13.072 10.6207 13.2252 10.7738C13.3784 10.927 13.5725 11.0327 13.7843 11.0782L16.2546 11.6088C16.4307 11.6466 16.6133 11.6415 16.787 11.5941C16.9608 11.5466 17.1206 11.4581 17.253 11.336L19.8658 8.92571C19.8658 8.95384 19.8658 8.98102 19.8658 9.00915C19.8641 10.3015 19.3499 11.5403 18.436 12.454C17.5221 13.3678 16.2831 13.8817 14.9908 13.8832Z"/> </svg>

<svg viewBox="0 0 24 24" xmlns="http://www.w3.org/2000/svg" aria-hidden="true" fill="currentColor"><path d="M21.597 6.336a1.126 1.126 0 0 0-1.805-.405L16.156 9.29l-1.189-.255-.257-1.191 3.355-3.636a1.126 1.126 0 0 0-.405-1.805 7.132 7.132 0 0 0-9.38 9.01l-5.39 4.926-.037.035a3.375 3.375 0 0 0 4.773 4.773l.035-.037 4.926-5.39a7.13 7.13 0 0 0 9.01-9.383m-6.606 7.547a4.8 4.8 0 0 1-2.19-.517 1.125 1.125 0 0 0-1.336.245l-5.445 5.96a1.127 1.127 0 0 1-1.594-1.595l5.958-5.444a1.125 1.125 0 0 0 .246-1.337 4.88 4.88 0 0 1 4.361-7.062h.083l-2.411 2.613a1.12 1.12 0 0 0-.273.998l.53 2.47a1.12 1.12 0 0 0 .864.864l2.47.53a1.13 1.13 0 0 0 .999-.272l2.613-2.41v.083a4.88 4.88 0 0 1-4.875 4.874"/></svg>
